symbolic/32x32/places/folder-cyan-wine.svg

<svg xmlns="http://www.w3.org/2000/svg" width="32" height="32" version="1">
 <rect style="opacity:0.2" width="28" height="18" x="2" y="11" rx="1.4" ry="1.4"/>
 <path style="fill:#0096aa" d="M 2,22.6 C 2,23.376 2.6244,24 3.4,24 H 28.6 C 29.376,24 30,23.376 30,22.6 V 7.4 C 30,6.6244 29.376,6 28.6,6 H 16 C 13.9,6 13.2,3 11.1,3 H 3.4 C 2.6244,3 2,3.6244 2,4.4"/>
 <rect style="opacity:0.2" width="28" height="18" x="2" y="9" rx="1.4" ry="1.4"/>
 <rect style="fill:#e4e4e4" width="24" height="11" x="4" y="8" rx="1.4" ry="1.4"/>
 <rect style="fill:#00bcd4" width="28" height="18" x="2" y="10" rx="1.4" ry="1.4"/>
 <path style="opacity:0.1;fill:#ffffff" d="M 3.4004,3 C 2.6248,3 2,3.6248 2,4.4004 V 5.4004 C 2,4.6248 2.6248,4 3.4004,4 H 11.1 C 13.2,4 13.9,7 16,7 H 28.6 C 29.375,7 30,7.6248 30,8.4004 V 7.4004 C 30,6.6248 29.375,6 28.6,6 H 16 C 13.9,6 13.2,3 11.1,3 Z"/>
 <path style="fill:#00424a" d="M 11.625 14 C 11.27875 14 11 14.27875 11 14.625 L 11 17.375 C 11 17.72125 11.27875 18 11.625 18 L 14.375 18 C 14.72125 18 15 17.72125 15 17.375 L 15 14.625 C 15 14.27875 14.72125 14 14.375 14 L 11.625 14 z M 17.625 14 C 17.27875 14 17 14.27875 17 14.625 L 17 17.375 C 17 17.72125 17.27875 18 17.625 18 L 20.375 18 C 20.72125 18 21 17.72125 21 17.375 L 21 14.625 C 21 14.27875 20.72125 14 20.375 14 L 17.625 14 z M 11.625 20 C 11.27875 20 11 20.27875 11 20.625 L 11 23.375 C 11 23.72125 11.27875 24 11.625 24 L 14.375 24 C 14.72125 24 15 23.72125 15 23.375 L 15 20.625 C 15 20.27875 14.72125 20 14.375 20 L 11.625 20 z M 17.625 20 C 17.27875 20 17 20.27875 17 20.625 L 17 23.375 C 17 23.72125 17.27875 24 17.625 24 L 20.375 24 C 20.72125 24 21 23.72125 21 23.375 L 21 20.625 C 21 20.27875 20.72125 20 20.375 20 L 17.625 20 z"/>
</svg>

<svg xmlns="http://www.w3.org/2000/svg" width="32" height="32" version="1"><rect style="opacity:.2" width="28" height="18" x="2" y="11" rx="1.4" ry="1.4"/><path style="fill:#0096aa" d="M2 22.6c0 .776.624 1.4 1.4 1.4h25.2c.776 0 1.4-.624 1.4-1.4V7.4c0-.776-.624-1.4-1.4-1.4H16c-2.1 0-2.8-3-4.9-3H3.4C2.624 3 2 3.624 2 4.4"/><rect style="opacity:.2" width="28" height="18" x="2" y="9" rx="1.4" ry="1.4"/><rect style="fill:#e4e4e4" width="24" height="11" x="4" y="8" rx="1.4" ry="1.4"/><rect style="fill:#00bcd4" width="28" height="18" x="2" y="10" rx="1.4" ry="1.4"/><path style="opacity:.1;fill:#fff" d="M3.4 3C2.625 3 2 3.625 2 4.4v1C2 4.625 2.625 4 3.4 4h7.7c2.1 0 2.8 3 4.9 3h12.6c.775 0 1.4.625 1.4 1.4v-1c0-.775-.625-1.4-1.4-1.4H16c-2.1 0-2.8-3-4.9-3z"/><path style="fill:#00424a" d="M11.625 14a.624.624 0 0 0-.625.625v2.75c0 .346.279.625.625.625h2.75a.624.624 0 0 0 .625-.625v-2.75a.624.624 0 0 0-.625-.625h-2.75zm6 0a.624.624 0 0 0-.625.625v2.75c0 .346.279.625.625.625h2.75a.624.624 0 0 0 .625-.625v-2.75a.624.624 0 0 0-.625-.625h-2.75zm-6 6a.624.624 0 0 0-.625.625v2.75c0 .346.279.625.625.625h2.75a.624.624 0 0 0 .625-.625v-2.75a.624.624 0 0 0-.625-.625h-2.75zm6 0a.624.624 0 0 0-.625.625v2.75c0 .346.279.625.625.625h2.75a.624.624 0 0 0 .625-.625v-2.75a.624.624 0 0 0-.625-.625h-2.75z"/></svg>
